X: 1733
T: Senin Aşkınla Çâkoldum
C: Basmacı Abdi Efendi
O: Turkey
F: http://compmusic.upf.edu/node/140
N: rast--sarki--duyek--senin_askinla_cakoldum--basmaci_abdi_efendi
N: makam= rast
N: form= sarki
N: usul= duyek = 8/4
M: 8/4
L: 1/16
K: C _1/4B ^f  
Q: 1/4=120
%%MIDI tuningsystem comma53
z2 G4 A2 {d}B2 c2 B2 A2  | A2 GA G2 A2 B2 Ac B4  | \
w:  Se  |  *  nin_ *  *  *  aş  | 
c4 d4 d2 c2 {d}c2 d2  | 
w:  kın  | 
d_3/4e f4 ed d2 {e}dc B3/2^A/ B2  | \
w:   | 
B2 Bc d2 e2 {a}g2 =f2 e2 d2  | z2 d4 B2 c3B {e}d2 cB  | 
w:  *  la   |  çâk_ *  ol  | 
^A2 B6 A2 B2 c2 {d}cB  | B6 e=f ed {e}d^c d4  | \
w:  dum    |  *  SAZ  | 
d4 e2 ^3/4f2 a2 g2 =f2 e2  | 
w:  Ye  | 
d2 =fe d2 e2 d2 {e}dc B4  | B4 d3c B4 c3B  | \
w:  *  ter  *  *  *  gay  |  rı   | 
A3B c2 B2 {d}c2 BA A4  | 
w:   | 
z2 GA B2 c2 d2 ce d2 c2  | BA c2 B2 A2 A2 {B}AG G4  | \
w:  he  |  *  *  lâk_ *  *  ol  | 
G4 A2 B2 A2 B4 AG  | 
w:  *  dum    | 
G6 g2 gf ef g4  | z2 g4 {a}gf f3e d4  | \
w:  *  SAZ SAZ  |  Ga *  *  *  mın  | 
e2 f2 g2 a2 f2 g6  | z2 fg a2 gf3 _3/4ef g2 fe  | 
w:  la  *  *  *  çâk_  |  i  *  *  *  *  çak_  | 
d2 f_3/4e f2 ed d2 {e}dc B^A B2  | \
w:   | 
B2 Bc d2 e2 {a}g2 =f2 e2 d2  | 
w:  *  i   | 
z2 d4 B2 c3B d2 cB  | ^A2 B6 A2 B2 c2 {d}cB  | \
w:  çak  *  ol  |  dum    | 
B6 e=f ed {e}d^c d4  | 
w:  *  SAZ  | 
d4 e2 ^3/4f2 a2 g2 =f2 e2  | d2 =fe d2 e2 d2 {e}dc B4  | \
w:  Ye  |  *  ter  *  *  *  gay  | 
B4 d3c B4 c3B  | 
w:  rı   | 
A3B c2 B2 {d}c2 BA A4  | z2 GA B2 c2 d2 ce d2 c2  | \
w:   |  he  | 
BA c2 B2 A2 A2 {B}AG G4  | 
w:  *  *  lâk_ *  *  ol  | 
G4 A2 B2 A2 B4 AG  | G6 D2 E2 F2 G4  | |


